X:1
T:James Gibb editions
T:Welcome, sweet day of rest - Barnby
%%score [ ( 1 2 ) ( 3 4 ) ]
L:1/8
Q:1/4=160
M:3/2
K:A
V:1 treble nm="Midi_74"
V:2 treble 
V:3 bass nm="Midi_74"
V:4 bass 
V:1
"^Chiselhurst (S.M)""^Welcome, sweet day of rest""^Joseph Barnby\n(1838-96)" E4 A4 d4 | c8 B4 | %2
 A12 || c4 B4 e4 | G8 F4 | E12 | E4 E4 F4 | F8 E4 | A8 B4 | (B4 A4) || f4 | e8 c4 | B8 A4 | A12 || %14
 A12 | A12 |] %16
V:2
 C4 E4 D4 | E8 E4 | E12 || ^D4 E4 E4 | E8 ^D4 | E12 | !courtesy!=D4 D4 D4 | C8 C4 | (E4 D4) =G4 | %9
 F8 || A4 | A8 A4 | G8 A4 | E12 || F12 | E12 |] %16
V:3
 A,4 A,4 A,4 | A,8 D4 | C12 || A,4 G,4 ^A,4 | B,8 A,4 | G,12 | B,4 G,4 G,4 | ^A,8 A,4 | %8
 (C4 D4) C4 | (D4 A,4) || B,4 | C8 E4 | D8 C4 | C12 || D12 | C12 |] %16
V:4
 A,,4 C,4 F,4 | E,8 E,4 | A,12 || F,4 G,4 C,4 | B,,8 B,,4 | E,12 | G,,4 B,,4 E,4 | (A,,4 C,4) E,4 | %8
 (=G,4 F,4) E,4 | D,8 || ^D,4 | E,8 E,4 | E,8 A,,4 | A,,12 || D,12 | A,,12 |] %16

